brandFactory_export/2.Regular/Podium _2Regular.svg

<?xml version="1.0" encoding="UTF-8"?>
<svg width="24px" height="24px" viewBox="0 0 24 24" version="1.1" xmlns="http://www.w3.org/2000/svg" xmlns:xlink="http://www.w3.org/1999/xlink">
    <title>2.Regular/Podium _2Regular</title>
    <g id="Symbols" stroke="none" stroke-width="1" fill="none" fill-rule="evenodd">
        <g id="2.Regular/Podium-_2Regular" fill="#5CB615" fill-rule="nonzero">
            <path d="M13.4756303,7.03529412 L13.4789916,7.03865546 C13.4789916,7.03865546 13.4823529,7.03865546 13.4823529,7.03529412 L13.2504202,5.43529412 C13.210084,5.19327731 13.3008403,4.91428571 13.4823529,4.74621849 L14.5344538,3.67731092 L13.0420168,3.35798319 C12.8033613,3.3210084 12.5848739,3.15966387 12.4773109,2.94453782 L11.8084034,1.52605042 L11.1058824,2.92773109 C10.994958,3.16302521 10.7495798,3.33781513 10.487395,3.36134454 L9.05210084,3.57983193 L10.1176471,4.76302521 C10.2823529,4.93109244 10.3663866,5.2 10.3260504,5.43193277 L10.0739496,6.97142857 L11.4285714,6.30588235 C11.5394958,6.24537815 11.6638655,6.21512605 11.7882353,6.21512605 C11.9226891,6.21512605 12.0605042,6.25210084 12.1747899,6.31932773 L13.4756303,7.03529412 L13.4756303,7.03529412 Z M8.81680672,5.54285714 L7.99663866,4.7092437 C7.58991597,4.29579832 7.45210084,3.69411765 7.63697479,3.1394958 C7.81512605,2.59495798 8.27563025,2.20504202 8.83361345,2.1210084 L9.9394958,1.95294118 L10.4403361,0.894117647 C10.692437,0.36302521 11.210084,0.0302521008 11.7915966,0.0302521008 C12.3697479,0.0302521008 12.887395,0.359663866 13.1394958,0.894117647 L13.6436975,1.95630252 L14.7495798,2.1210084 C15.307563,2.20504202 15.7680672,2.59495798 15.9495798,3.1394958 C16.1310924,3.69411765 15.9932773,4.29579832 15.5865546,4.7092437 L14.7663866,5.54285714 L14.9613445,6.73277311 C15.0554622,7.3210084 14.8168067,7.89579832 14.3394958,8.23529412 C13.8823529,8.55798319 13.2638655,8.59495798 12.7731092,8.32605042 L11.7915966,7.78823529 L10.8134454,8.32268908 C10.5915966,8.44705882 10.3462185,8.50756303 10.1042017,8.50756303 C9.80168067,8.50756303 9.50588235,8.41344538 9.24705882,8.23193277 C8.76638655,7.88907563 8.53109244,7.31428571 8.62521008,6.72941176 L8.81680672,5.54285714 Z M16.2386555,22.1579832 L22.1512605,22.1579832 L22.1512605,18.3596639 L16.2386555,18.3596639 L16.2386555,22.1579832 L16.2386555,22.1579832 Z M1.47226891,15.5058824 L1.47226891,22.1579832 L7.38151261,22.1579832 L7.38151261,15.5058824 L1.47226891,15.5058824 Z M14.7663866,11.8621849 L8.85378151,11.8621849 L8.85378151,15.0857143 C8.85378151,15.0957983 8.85714286,15.0991597 8.85714286,15.1092437 L8.85714286,22.1815126 L14.7663866,22.1815126 L14.7663866,11.8621849 Z M14.9546218,23.6571429 L1.28739496,23.6571429 C0.578151261,23.6571429 0,23.1495798 0,22.5546218 L0,15.1092437 C0,14.4436975 0.668907563,14.0302521 1.28739496,14.0302521 L7.38487395,14.0302521 L7.38487395,11.6201681 C7.38487395,10.9647059 7.98655462,10.3865546 8.66890756,10.3865546 L14.9546218,10.3865546 C15.6403361,10.3865546 16.2420168,10.9613445 16.2420168,11.6201681 L16.2420168,16.8840336 L22.3394958,16.8840336 C23.0857143,16.8840336 23.6235294,17.287395 23.6235294,17.8420168 L23.6235294,22.6722689 C23.6235294,23.2369748 23.092437,23.6537815 22.3361345,23.6537815 L14.9546218,23.6537815 L14.9546218,23.6571429 Z" id="Podium-_2Regular"></path>
        </g>
    </g>
</svg>

<svg width="24" height="24" viewBox="0 0 24 24" xmlns="http://www.w3.org/2000/svg"><path d="M13.476 7.035l.003.004s.003 0 .003-.004l-.232-1.6a.797.797 0 01.232-.689l1.052-1.069-1.492-.319a.78.78 0 01-.565-.413l-.669-1.419-.702 1.402a.78.78 0 01-.619.433l-1.435.219 1.066 1.183a.802.802 0 01.208.669l-.252 1.54 1.355-.666a.775.775 0 01.746.013l1.3.716zm-4.66-1.492l-.82-.834a1.535 1.535 0 01-.359-1.57 1.49 1.49 0 011.197-1.018l1.105-.168.501-1.059A1.49 1.49 0 0111.792.03c.578 0 1.095.33 1.347.864l.505 1.062 1.106.165a1.5 1.5 0 011.2 1.018 1.544 1.544 0 01-.363 1.57l-.82.834.194 1.19a1.531 1.531 0 01-.622 1.502 1.496 1.496 0 01-1.566.091l-.981-.538-.979.535a1.45 1.45 0 01-.709.185c-.302 0-.598-.095-.857-.276a1.53 1.53 0 01-.622-1.503l.192-1.186zm7.423 16.615h5.912V18.36H16.24v3.798zM1.472 15.506v6.652h5.91v-6.652h-5.91zm13.294-3.644H8.854v3.224c0 .01.003.013.003.023v7.073h5.91v-10.32zm.189 11.795H1.287C.578 23.657 0 23.15 0 22.555v-7.446c0-.665.669-1.079 1.287-1.079h6.098v-2.41c0-.655.602-1.233 1.284-1.233h6.286c.685 0 1.287.574 1.287 1.233v5.264h6.097c.747 0 1.285.403 1.285.958v4.83c0 .565-.532.982-1.288.982h-7.381v.003z" fill="#5CB615" fill-rule="nonzero"/></svg>
